X:1
T:Bourbon Street, 87.87 D
T:Bourbon Street, 87.87 D
T:William A. Stewart, 1904
T:Public Domain Courtesy of the Cyber Hymnal™
C:William A. Stewart, 1904
Z:Public Domain
Z:Courtesy of the Cyber Hymnal™
%%score ( 1 2 ) ( 3 4 )
L:1/8
Q:1/4=100
M:4/4
K:Ab
V:1 treble 
V:2 treble 
V:3 bass 
V:4 bass 
V:1
 [EA] | [EA]2 [EB] [Ac]2 [Ad] | [Ac]2 [GB] A2 A | [GB]2 [GB] [FA]2 [GB] | [Ac] [Ae]4 [Ac] | %5
 [Ac]2 [GB] [FA]2 [GB] | [Ac]2 [Ad] [Ae]2 [Af] | [Ae]2 A [Ac]2 [EB] | [EB] [EA]4 [Ec] | %9
 [Fd]2 [Fd] [Fd]2 [FA] | [EA]2 [EB] [Ec]2 [Ec] | [Ae]2 [Ae] [Ac]2 A | [Ac] [GB]4 [Ac] | %13
 [Ae]2 [Af] [Ac]2 [GB] | [FA]2 [GB] [Ac]2 [Ac] | [Ae]2 A [Ac]2 [EB] | [EB] [EA]4 |] %17
V:2
 x | x6 | x3 A2 A | x6 | x6 | x6 | x6 | x2 A x3 | x6 | x6 | x6 | x5 A | x6 | x6 | x6 | x2 A x3 | %16
 x5 |] %17
V:3
 [A,C] | [A,C]2 [A,D] [A,E]2 [A,F] | [A,E]2 [E,D] [F,C]2 [C,E] | [E,E]2 [E,E] [F,C]2 [E,E] | %4
 [A,E] [A,C]4 [A,D] | [A,E]2 [E,D] [F,C]2 [E,E] | [A,E]2 [A,B,] [A,C]2 [D,D] | %7
 [E,C]2 [F,C] [E,E]2 [E,D] | [E,D] [A,C]4 A, | [D,A,]2 [D,A,] [D,A,]2 [D,A,] | %10
 [D,A,]2 [E,G,] A,2 A, | [A,C]2 [A,C] [A,E]2 [A,C] | [E,E] [E,E]4 [A,E] | %13
 [A,C]2 [A,D] [A,E]2 [E,D] | [F,C]2 [E,E] [A,E]2 [A,E] | [A,C]2 [F,=D] [E,E]2 [E,_D] | %16
 [A,,A,D] [A,,A,C]4 |] %17
V:4
 x | x6 | x6 | x6 | x6 | x6 | x6 | x6 | x6 | x6 | x3 A,2 A, | x6 | x6 | x6 | x6 | x6 | x5 |] %17

